X: 1331
T: Lûtfeyle Meded Rahmeyle Şehâ
C: Dede Efendi
O: Turkey
F: http://compmusic.upf.edu/node/140
N: acemasiran--sarki--aksak--lutfeyle_meded--dede_efendi
N: makam= acemasiran
N: form= sarki
N: usul= aksak = 9/8
M: 9/8
L: 1/16
K: C _B   
Q: 1/4=144
%%MIDI tuningsystem comma53
f2c'2 b2a2 a2g2 f2e2 d2 | c2 a2g2 f2f2 _e2d2 c2B2  | \
w:  ARANAĞME  |   | 
A2_e2 d2c2 B2A2 G2F2 E2 | 
w:   | 
F2 G2A2 B2c2 d2e2 f4  | f2c'2 b2a2 a2g2 f2e2 d2 | \
w:   |  ARANAĞME  | 
c2 a2g2 f2f2 _e2d2 c2B2  | 
w:   | 
A2_e2 d2c2 B2A2 G2F2 E2 | F2 G2A2 B2GF FEF6  | \
w:   |   | 
c8 f2e2 f6 | 
w:  Lût fey  | 
g4a4b2 c'2d'4z2  | c'4 b2a2 a2g2 f2e2 d2 | \
w:  le  me ded   |  rah *  *  mey  | 
a4g4c'2 _1/4b2_7/8a2 g2f2  | 
w:  le  şe hâ    | 
e2d2 c4 f2e2 f6 | g4a4b2 c'2d'4z2  | \
w:  Lût *  *  fey  |  le  me ded   | 
c'4 b2a2 a2g2 f2e2 d2 | a4g4f2 e2f6  | 
w:  rah *  *  mey  |  le  şe hâ    | 
d6g2 g4 f4 e2 | f4b2 a2a2 g2f2 e2d2  | \
w:  Ey  *  cân_  |  ü  te *  nim   | 
d2_e2 d2c2 c2d2 c4 B2 | 
w:  rah *  *  *  mey  | 
c4d4f2 _e2d2 c2B2  | A2G2 F2E2 F2E2 F4 z2 | \
w:  le  ba na    |  A *  *  *  man   | 
G2 A2G2 A2B2 A2B4z2  | 
w:  a *  *  *  man   | 
c2d2 c2B2 A4 G2F4 | G4A4B2 A2B4z2  | \
w:  ey  *  *  *  ka  |  şı  ke man    | 
A2B2 A2B2 c2=B2 c4 z2 | 
w:  A *  *  *  man   | 
d2 e2d2 e2f2 e2f4z2  | f2a2 g2f2 e4 d2c4 | \
w:  a *  *  *  man   |  ey  *  *  *  ka  | 
d4e4f2 e2f4z2  | 
w:  şı  ke man    | 
d6g2 g4 f4 e2 | f4b2 a2a2 g2f2 e2d2  | \
w:  Lût *  fey  |  le  me *  ded   | 
d2_e2 d2c2 c2B2 A2G2 F2 | 
w:  rah *  *  *  mey  | 
A4G2 _7/8A2GF E2F4z2  | |


